X:1
T:Title
%%score { 1 | 2 }
L:1/8
M:6/8
K:Ab
V:1 treble nm="Grand Piano"
V:2 bass 
V:1
 z3 z2[Q:1/4=84] [CE] | [Ec][Fd][Ec] [CA]2 [CE]/[CE]/ | [DF][EG][DF] [CE]2 E | AAA ABF | B3- B2 E | %5
 [Ec][Fd][Ec] [CEA]2 [B,EG]/[A,EA]/ | [FB][FA][EG] [DF]2 [Fd] | c>BA GAB | %8
[M:5/8] [CA]-[CA]- [CA]3 |[M:1/8] d |[M:3/4] dG AB- B/c/B | [CA][EG] [DF] [CE]2 E | A>A AA F[=Dc] | %13
 [EB]4- [EB][DE] | [CE][_C=D] [=CE][Ec]- [Ec]/[EB]/[EA] |[M:7/8] [FA][DF][FA] [Fd]3 [Fd] | %16
[M:3/4] c>B AG AB |[M:5/8] [CA]-[CA]- [CA]3 |] %18
V:2
 z3 z2 [A,,A,] | [A,,A,][A,,A,][A,,A,] [A,,E,]2 [A,,A,]/[A,,A,]/ | %2
 [D,A,][D,A,][D,A,] [A,,A,]2 [A,C] | [A,CE][A,CE][A,C=E] [F,CF][F,B,=D][F,A,D] | %4
 [E,G,E]3- [E,G,E]2 [E,G,] | [A,,A,][A,,A,][A,,A,] A,,2 B,,/C,/ | %6
 [D,A,][D,A,][D,A,] [D,A,]2 [D,A,] | [E,A,E]>[E,G,D][E,A,C] [E,B,D][E,A,C][E,G,D] | %8
[M:5/8] [A,,A,]-[A,,A,]- [A,,A,]3 |[M:1/8] [E,G,E] | %10
[M:3/4] [E,G,E][E,B,E] [E,CE][E,DE]- [E,DE]/[E,F,E]/[E,G,D] | %11
 [A,,A,][A,,A,] [A,,A,] [A,,A,]2 [A,C] | [A,CE]>[A,CE] [A,CE][F,B,=D] [F,B,D][B,,A,] | %13
 [E,G,]4- [E,G,][E,G,] | [A,,A,][A,,A,] [A,,A,][A,,A,]- [A,,A,]/[B,,G,]/[C,A,] | %15
[M:7/8] [D,A,][D,A,][D,A,] [D,A,]3 [D,A,] |[M:3/4] [E,A,E]>[E,G,D] [E,A,C][E,B,D] [E,A,C][E,G,D] | %17
[M:5/8] [A,,A,]-[A,,A,]- [A,,A,]3 |] %18

